X: 1
T: Horschtl\aaten
T: Schottis fr\aan H\aarte
O: Sweden
R: shottish
Z: 2017 John Chambers <jc:trillian.mit.edu>
M: 4/4
L: 1/8
K: D
|:\
"D"DFAd B2A2 | DFAd f2f2 | "A7"efge cABc | "D"defd A2F2 || "D"DFAd B2A2 |
DFAd f2f2 | "Em"efge "A7"cABc | "D"d2f2 d4 :: "G"B2Bd B2Bd | "D"A2Ad A2AG | "A7"E2EC A,2A,C |
"D"DEFG A3d || "G"B2Bd B2Bd | "D"A2Ad f2f2 | "Em"efge "A7"cABc |1 "D"d2f2 d3d :|2 "D"d2f2 d4 |]
